packages/foundations/assets/icons/functional/images/transportation/airplane_20_inverted.svg

<svg width="20" height="20" viewBox="0 0 20 20" fill="none" xmlns="http://www.w3.org/2000/svg">
<g clip-path="url(#clip0_2214_6632)">
<path fill-rule="evenodd" clip-rule="evenodd" d="M16.3325 6.7922L13.9077 7.59539L14.4104 8.98543C16.0038 8.4671 17.1119 8.10781 17.7347 7.90758C18.3012 8.98543 17.8951 10.0494 16.4691 10.4854L13.1601 11.5224L10.5521 16.2904C10.4681 16.4304 10.3281 16.5424 10.1601 16.5994L9.56507 16.7534C9.17207 16.8654 8.78007 16.5574 8.78007 16.1364L8.75207 12.9114L6.45807 13.6264C5.08407 14.0744 3.87807 13.2624 3.51407 12.2244L2.05607 8.13043C1.97107 7.84943 2.02407 7.60343 2.29707 7.46743L2.78007 7.26743C2.97957 7.17905 3.20051 7.2438 3.39465 7.41545L4.98307 8.98543L12.4871 6.64343C13.8947 6.19056 15.3021 6.34409 16.3325 6.7922ZM6.73603 9.95646C6.39703 10.1934 6.31303 10.6613 6.55003 11.0002C6.78703 11.3406 7.25353 11.4231 7.59403 11.1862C7.93453 10.9492 8.01703 10.4828 7.78003 10.1424C7.54303 9.80199 7.07653 9.71951 6.73603 9.95646ZM9.22667 9.20674C8.88767 9.44224 8.80367 9.91024 9.04067 10.2492C9.27767 10.5897 9.74417 10.6737 10.0847 10.4352C10.4252 10.1997 10.5077 9.73324 10.2707 9.39274C10.0337 9.05224 9.56567 8.96974 9.22667 9.20674ZM11.7173 8.44258C11.3783 8.67808 11.2943 9.14758 11.5313 9.48508C11.7683 9.82558 12.2348 9.90958 12.5753 9.67258C12.9158 9.43558 12.9983 8.96908 12.7613 8.62858C12.5243 8.28808 12.0563 8.20558 11.7173 8.44258ZM7.71087 3.43433L10.4059 5.97333L7.19887 6.95633L5.87487 4.41033C5.68787 3.99033 5.91087 3.54633 6.33687 3.43333L6.99087 3.24933C7.24787 3.18033 7.52487 3.25133 7.71087 3.43433Z" fill="#1A1C1F"/>
</g>
<defs>
<clipPath id="clip0_2214_6632">
<rect width="20" height="20" fill="white"/>
</clipPath>
</defs>
</svg>

<svg xmlns="http://www.w3.org/2000/svg" width="20" height="20" fill="none"><g clip-path="url(#a)"><path fill="#1A1C1F" fill-rule="evenodd" d="m16.333 6.792-2.425.803.502 1.39q2.39-.777 3.325-1.077c.566 1.077.16 2.141-1.266 2.577l-3.309 1.037-2.608 4.768a.73.73 0 0 1-.392.31l-.595.153c-.393.112-.785-.196-.785-.617l-.028-3.225-2.294.715a2.323 2.323 0 0 1-2.944-1.402L2.056 8.13c-.085-.28-.032-.527.241-.663l.483-.2c.2-.088.42-.023.615.148l1.588 1.57 7.504-2.342c1.408-.452 2.815-.299 3.845.15M6.736 9.956a.75.75 0 1 0 .86 1.23.75.75 0 0 0-.86-1.23m2.49-.75a.748.748 0 1 0 .859 1.23.75.75 0 1 0-.858-1.228m2.491-.763a.749.749 0 1 0 .858 1.23.749.749 0 1 0-.858-1.23M7.711 3.434l2.695 2.54-3.207.982L5.875 4.41a.696.696 0 0 1 .462-.977l.654-.184a.75.75 0 0 1 .72.185" clip-rule="evenodd"/></g><defs><clipPath id="a"><path fill="#fff" d="M0 0h20v20H0z"/></clipPath></defs></svg>
